X:1
T:The Broomfield Hill
M:4/4
L:1/8
K:D
B,-C| D2 B,2 D2 DE| F2F-E D2 E2| F2 F2 d2 c2| B6|F-A| B2B-A B2B,-C|\
D-EF-G A2B-A| F2 ED B,2 B,2| B,6||
